dist/assets/img/svg/icon-ok.svg

<svg width="13" height="22" viewBox="0 0 13 22" fill="none" xmlns="http://www.w3.org/2000/svg">
<path d="M6.18709 11.0115C9.12588 11.0115 11.5215 8.57614 11.5215 5.58878C11.5215 2.60139 9.12588 0.166016 6.18709 0.166016C3.21653 0.166016 0.820861 2.60139 0.820861 5.58878C0.820861 8.57614 3.21653 11.0115 6.18709 11.0115ZM6.18709 3.34824C7.40092 3.34824 8.39118 4.35487 8.39118 5.58878C8.39118 6.82271 7.40092 7.82927 6.18709 7.82927C4.97341 7.82927 3.98315 6.82271 3.98315 5.58878C3.95115 4.35487 4.94141 3.34824 6.18709 3.34824Z" fill="white" fill-opacity="0.7"/>
<path d="M8.32733 15.4602C9.4133 15.2004 10.4674 14.7783 11.4257 14.1614C12.1604 13.7067 12.3839 12.7001 11.9048 11.9533C11.4577 11.2064 10.4674 10.9791 9.73272 11.4662C7.56063 12.8625 4.71785 12.8625 2.54578 11.4662C1.81111 11.0117 0.852849 11.2064 0.373704 11.9533C-0.0415427 12.7001 0.182051 13.6743 0.916732 14.1288C1.87499 14.7459 2.92908 15.1679 4.01515 15.4277L1.0445 18.4476C0.437587 19.0646 0.437587 20.0711 1.0445 20.6882C1.36392 21.0129 1.74723 21.1427 2.16247 21.1427C2.57772 21.1427 2.96102 20.9804 3.28046 20.6882L6.21909 17.7007L9.15788 20.6882C9.76472 21.3051 10.755 21.3051 11.3618 20.6882C11.9687 20.0711 11.9687 19.0646 11.3618 18.4476L8.32733 15.4602Z" fill="white" fill-opacity="0.7"/>
</svg>

<svg width="13" height="22" fill="none" xmlns="http://www.w3.org/2000/svg"><path d="M6.187 11.011c2.939 0 5.334-2.435 5.334-5.422C11.521 2.6 9.127.166 6.188.166 3.217.166.821 2.601.821 5.589c0 2.987 2.396 5.422 5.366 5.422zm0-7.663c1.214 0 2.204 1.007 2.204 2.24 0 1.235-.99 2.241-2.204 2.241-1.214 0-2.204-1.006-2.204-2.24a2.187 2.187 0 012.204-2.24zm2.14 12.112c1.086-.26 2.14-.682 3.099-1.299.734-.454.958-1.46.479-2.208a1.541 1.541 0 00-2.172-.487 6.689 6.689 0 01-7.187 0 1.575 1.575 0 00-2.172.487c-.416.747-.192 1.721.543 2.176a10 10 0 003.098 1.299l-2.97 3.02a1.606 1.606 0 000 2.24 1.5 1.5 0 001.117.455 1.64 1.64 0 001.118-.455l2.94-2.987 2.938 2.987a1.544 1.544 0 002.204 0 1.606 1.606 0 000-2.24L8.327 15.46z" fill="#fff" fill-opacity=".7"/></svg>
